public/img/anti-feature-1.svg

<svg width="88" height="88" viewBox="0 0 88 88" fill="none" xmlns="http://www.w3.org/2000/svg">
<path d="M54.5276 40.4802H57.099C57.7475 40.4802 58.2723 39.9554 58.2723 39.3068V28.7468C58.2723 28.0983 57.7475 27.5735 57.099 27.5735H28.939C28.2904 27.5735 27.7656 28.0983 27.7656 28.7468V39.3068C27.7656 39.9554 28.2904 40.4802 28.939 40.4802H31.5103C33.3275 40.4802 34.8056 39.002 34.8056 37.1848V35.7868H38.3256V52.2135H36.9276C35.1104 52.2135 33.6323 53.6916 33.6323 55.5088V58.0801C33.6323 58.7287 34.1571 59.2535 34.8056 59.2535H51.2323C51.8809 59.2535 52.4056 58.7287 52.4056 58.0801V55.5088C52.4056 53.6916 50.9275 52.2135 49.1103 52.2135H47.7123V35.7868H51.2323V37.1848C51.2323 39.002 52.7104 40.4802 54.5276 40.4802ZM35.979 55.5088C35.979 54.9852 36.404 54.5602 36.9276 54.5602H39.499C40.1475 54.5602 40.6723 54.0354 40.6723 53.3868V34.6135C40.6723 33.9649 40.1475 33.4402 39.499 33.4402H33.6323C32.9837 33.4402 32.459 33.9649 32.459 34.6135V37.1848C32.459 37.7084 32.0339 38.1335 31.5103 38.1335H30.1123V29.9202H41.8456V56.9068H35.979V55.5088ZM46.539 33.4402C45.8904 33.4402 45.3656 33.9649 45.3656 34.6135V53.3868C45.3656 54.0354 45.8904 54.5602 46.539 54.5602H49.1103C49.6339 54.5602 50.059 54.9852 50.059 55.5088V56.9068H44.1923V29.9202H55.9256V38.1335H54.5276C54.004 38.1335 53.579 37.7084 53.579 37.1848V34.6135C53.579 33.9649 53.0542 33.4402 52.4056 33.4402H46.539Z" fill="black"/>
<path d="M59.4458 65.1201C61.3868 65.1201 62.9658 63.5411 62.9658 61.6001C62.9658 59.6591 61.3868 58.0801 59.4458 58.0801C57.5048 58.0801 55.9258 59.6591 55.9258 61.6001C55.9258 63.5411 57.5048 65.1201 59.4458 65.1201ZM59.4458 60.4267C60.0932 60.4267 60.6191 60.9527 60.6191 61.6001C60.6191 62.2475 60.0932 62.7734 59.4458 62.7734C58.7984 62.7734 58.2724 62.2475 58.2724 61.6001C58.2724 60.9527 58.7984 60.4267 59.4458 60.4267Z" fill="black"/>
<path d="M76.5108 44.4238C75.7772 44.4224 75.1812 45.0164 75.1797 45.75C75.1782 46.4836 75.7722 47.0797 76.5059 47.0811C77.2398 47.0826 77.8355 46.4886 77.837 45.755C77.8385 45.0211 77.2448 44.4253 76.5108 44.4238Z" fill="black"/>
<path d="M56.4102 49.27C56.4087 50.0036 57.0027 50.5997 57.7363 50.6012C58.4702 50.6026 59.066 50.0086 59.0675 49.275C59.0689 48.5414 58.4749 47.9453 57.7413 47.9439C57.0074 47.9424 56.4116 48.5364 56.4102 49.27Z" fill="black"/>
<path d="M13.1628 22.8801H14.8574V61.6001C14.8574 62.2486 15.3822 62.7734 16.0307 62.7734C16.6793 62.7734 17.2041 62.2486 17.2041 61.6001V22.8801H18.8986C20.5522 22.8801 21.8974 21.5348 21.8974 19.8813V18.1867H64.1374V19.8813C64.1374 21.5348 65.4826 22.8801 67.1361 22.8801H72.8723C74.5258 22.8801 75.871 21.5348 75.871 19.8813V14.1455C75.871 12.492 74.5258 11.1467 72.8723 11.1467H67.1361C65.4826 11.1467 64.1374 12.492 64.1374 14.1455V15.8401H21.8974V14.1455C21.8974 12.492 20.5522 11.1467 18.8986 11.1467H13.1628C11.5093 11.1467 10.1641 12.492 10.1641 14.1455V19.8816C10.1641 21.5348 11.5093 22.8801 13.1628 22.8801ZM66.4841 14.1455C66.4841 13.7856 66.7762 13.4934 67.1361 13.4934H72.8723C73.2322 13.4934 73.5244 13.7856 73.5244 14.1455V19.8816C73.5244 20.2415 73.2322 20.5337 72.8723 20.5337H67.1361C66.7762 20.5337 66.4841 20.2415 66.4841 19.8816V14.1455ZM12.5107 14.1455C12.5107 13.7856 12.8029 13.4934 13.1628 13.4934H18.8989C19.2589 13.4934 19.551 13.7856 19.551 14.1455V19.8816C19.551 20.2415 19.2589 20.5337 18.8989 20.5337H13.1628C12.8029 20.5337 12.5107 20.2415 12.5107 19.8816V14.1455Z" fill="black"/>
<path d="M72.872 65.1201H71.1774V26.4001C71.1774 25.7516 70.6526 25.2268 70.0041 25.2268C69.3555 25.2268 68.8307 25.7516 68.8307 26.4001V65.1201H67.1361C65.4826 65.1201 64.1374 66.4654 64.1374 68.1189V69.8135H21.8974V68.1189C21.8974 66.4654 20.5522 65.1201 18.8986 65.1201H13.1628C11.5093 65.1201 10.1641 66.4654 10.1641 68.1189V73.855C10.1641 75.5085 11.5093 76.8538 13.1628 76.8538H18.8989C20.5525 76.8538 21.8977 75.5085 21.8977 73.855V72.1601H64.1377V73.8547C64.1377 75.5083 65.4829 76.8535 67.1364 76.8535H72.8726C74.5261 76.8535 75.8713 75.5083 75.8713 73.8547V68.1186C75.8707 66.4654 74.5255 65.1201 72.872 65.1201ZM19.5507 73.8547C19.5507 74.2147 19.2586 74.5068 18.8986 74.5068H13.1628C12.8029 74.5068 12.5107 74.2147 12.5107 73.8547V68.1186C12.5107 67.7587 12.8029 67.4665 13.1628 67.4665H18.8989C19.2589 67.4665 19.551 67.7587 19.551 68.1186V73.8547H19.5507ZM73.5241 73.8547C73.5241 74.2147 73.2319 74.5068 72.872 74.5068H67.1358C66.7759 74.5068 66.4838 74.2147 66.4838 73.8547V68.1186C66.4838 67.7587 66.7759 67.4665 67.1358 67.4665H72.872C73.2319 67.4665 73.5241 67.7587 73.5241 68.1186V73.8547Z" fill="black"/>
</svg>

<svg width="88" height="88" fill="none" xmlns="http://www.w3.org/2000/svg"><path d="M54.528 40.48h2.571c.649 0 1.173-.525 1.173-1.173v-10.56c0-.649-.524-1.174-1.173-1.174h-28.16c-.649 0-1.173.525-1.173 1.174v10.56c0 .648.524 1.173 1.173 1.173h2.571a3.299 3.299 0 003.296-3.295v-1.398h3.52v16.427h-1.398a3.299 3.299 0 00-3.296 3.295v2.571c0 .649.525 1.174 1.174 1.174h16.426c.649 0 1.174-.525 1.174-1.174v-2.57a3.299 3.299 0 00-3.296-3.295h-1.398V35.787h3.52v1.398a3.299 3.299 0 003.296 3.295zM35.979 55.51a.95.95 0 01.949-.949h2.571c.648 0 1.173-.525 1.173-1.173V34.614c0-.65-.524-1.174-1.173-1.174h-5.867c-.648 0-1.173.525-1.173 1.174v2.57a.95.95 0 01-.949.95h-1.398V29.92h11.734v26.987h-5.867v-1.398zm10.56-22.069c-.649 0-1.173.525-1.173 1.174v18.773c0 .648.524 1.173 1.173 1.173h2.571a.95.95 0 01.949.949v1.398h-5.867V29.92h11.734v8.213h-1.398a.95.95 0 01-.949-.948v-2.572c0-.648-.525-1.173-1.173-1.173h-5.867zM59.446 65.12a3.524 3.524 0 003.52-3.52 3.524 3.524 0 00-3.52-3.52 3.524 3.524 0 00-3.52 3.52 3.524 3.524 0 003.52 3.52zm0-4.693a1.174 1.174 0 11-.002 2.348 1.174 1.174 0 01.002-2.348zM76.51 44.424a1.329 1.329 0 10-.003 2.658 1.329 1.329 0 00.004-2.658zm-20.1 4.846a1.329 1.329 0 102.658.005 1.329 1.329 0 00-2.658-.005z" fill="#000"/><path d="M13.163 22.88h1.694V61.6a1.173 1.173 0 102.347 0V22.88H18.9a3.002 3.002 0 002.998-2.999v-1.694h42.24v1.694a3.002 3.002 0 003 3h5.735a3.002 3.002 0 002.999-3v-5.736a3.002 3.002 0 00-2.999-2.998h-5.736a3.002 3.002 0 00-2.999 2.998v1.695h-42.24v-1.694a3.002 3.002 0 00-2.998-3h-5.736a3.002 3.002 0 00-2.999 3v5.736a3.002 3.002 0 002.999 2.998zm53.321-8.734c0-.36.292-.653.652-.653h5.736c.36 0 .652.293.652.652v5.737c0 .36-.292.652-.652.652h-5.736a.652.652 0 01-.652-.652v-5.737zm-53.973 0c0-.36.292-.653.652-.653h5.736c.36 0 .652.293.652.652v5.737c0 .36-.292.652-.652.652h-5.736a.652.652 0 01-.652-.652v-5.737z" fill="#000"/><path d="M72.872 65.12h-1.695V26.4a1.173 1.173 0 10-2.346 0v38.72h-1.695a3.002 3.002 0 00-2.999 2.999v1.695h-42.24v-1.695A3.002 3.002 0 0018.9 65.12h-5.736a3.002 3.002 0 00-2.999 2.999v5.736a3.002 3.002 0 002.999 2.999H18.9a3.002 3.002 0 002.999-2.999V72.16h42.24v1.695a3.002 3.002 0 002.998 2.998h5.737a3.002 3.002 0 002.998-2.998v-5.736a3.003 3.003 0 00-2.999-2.999zm-53.321 8.735c0 .36-.292.652-.652.652h-5.736a.652.652 0 01-.652-.652v-5.736c0-.36.292-.653.652-.653h5.736c.36 0 .652.293.652.653v5.736zm53.973 0c0 .36-.292.652-.652.652h-5.736a.652.652 0 01-.652-.652v-5.736c0-.36.292-.653.652-.653h5.736c.36 0 .652.293.652.653v5.736z" fill="#000"/></svg>
